img/customer-logo-2.svg

<svg width="216" height="25" viewBox="0 0 216 25" fill="none" xmlns="http://www.w3.org/2000/svg">
<path d="M61.6102 0.967834C62.0898 1.79723 62.6243 2.8116 63.214 4.01095C63.8036 5.2103 64.4035 6.47022 65.0137 7.79072C65.6235 9.11071 66.2287 10.4523 66.8294 11.8155C67.43 13.1787 67.981 14.4387 68.4821 15.5953C68.9848 14.4392 69.5302 13.1793 70.1183 11.8155C70.7064 10.4518 71.3063 9.1102 71.918 7.79072C72.5288 6.47123 73.1287 5.21131 73.7178 4.01095C74.3069 2.81059 74.8415 1.79622 75.3216 0.967834H79.038C79.2391 2.62662 79.4278 4.3882 79.6043 6.25257C79.7807 8.11694 79.9415 10.0258 80.0868 11.9791C80.2316 13.932 80.365 15.8954 80.4872 17.8693C80.6093 19.8433 80.7149 21.7685 80.8039 23.6449H76.7466C76.6577 21.0059 76.5518 18.2901 76.4292 15.4973C76.3065 12.7045 76.1233 9.99916 75.8795 7.3813C75.6393 7.88396 75.3555 8.48389 75.0283 9.18108C74.701 9.87827 74.3519 10.6365 73.981 11.4559C73.61 12.2742 73.233 13.1194 72.85 13.9916C72.467 14.8637 72.096 15.7091 71.7371 16.528C71.3767 17.3463 71.0457 18.1099 70.7441 18.8186C70.4425 19.5274 70.1806 20.1326 69.9584 20.6342H66.8791C66.6605 20.1316 66.3986 19.5208 66.0935 18.802C65.7883 18.0832 65.4556 17.3141 65.0952 16.4948C64.7353 15.677 64.3646 14.8318 63.983 13.9591C63.6015 13.0865 63.2245 12.2466 62.852 11.4393C62.4811 10.635 62.1322 9.87701 61.8055 9.16525C61.4788 8.45348 61.1955 7.85883 60.9558 7.3813C60.711 9.99916 60.5275 12.7045 60.4053 15.4973C60.2832 18.2901 60.1776 21.0059 60.0887 23.6449H56.0307C56.1196 21.769 56.2252 19.8275 56.3473 17.8203C56.4695 15.8132 56.6027 13.8227 56.747 11.8487C56.8917 9.87425 57.0528 7.95986 57.2303 6.10554C57.4077 4.25122 57.5967 2.53865 57.7973 0.967834H61.6102Z" fill="#78788B"/>
<path d="M85.2524 15.17C85.2524 13.662 85.4761 12.3421 85.9235 11.2101C86.3708 10.0781 86.966 9.13457 87.7089 8.37957C88.4313 7.64003 89.3008 7.06028 90.2612 6.67781C91.1974 6.30087 92.1971 6.10661 93.2063 6.10553C95.5628 6.10553 97.4008 6.8364 98.7202 8.29814C100.04 9.75988 100.7 11.9414 100.7 14.8428C100.7 15.0607 100.694 15.3065 100.684 15.5787C100.673 15.8509 100.656 16.0974 100.635 16.3153H89.3428C89.4514 17.6891 89.9367 18.7525 90.7988 19.5055C91.6609 20.2585 92.91 20.6355 94.5461 20.6365C95.4309 20.6443 96.3139 20.5566 97.1798 20.3748C97.976 20.2009 98.6044 20.0154 99.0648 19.8184L99.5881 23.0606C99.2975 23.198 98.9968 23.313 98.6886 23.4044C98.2583 23.5365 97.8214 23.6458 97.3796 23.7316C96.8885 23.8296 96.3607 23.9113 95.7963 23.9767C95.2206 24.0426 94.6415 24.0753 94.0621 24.0747C92.5541 24.0747 91.2452 23.8513 90.1353 23.4044C89.0254 22.9575 88.109 22.3357 87.3862 21.539C86.6567 20.7264 86.1099 19.7669 85.7825 18.7251C85.4204 17.5752 85.2416 16.3755 85.2524 15.17ZM96.738 13.4027C96.7415 12.8762 96.6652 12.3523 96.5118 11.8487C96.3728 11.3838 96.1449 10.9503 95.8407 10.5722C95.5473 10.2132 95.1788 9.92284 94.761 9.72168C94.3348 9.51458 93.8276 9.41078 93.2395 9.41028C92.6853 9.3979 92.1361 9.51566 91.6357 9.7541C91.1916 9.97227 90.7963 10.2783 90.4738 10.6536C90.154 11.0316 89.9047 11.4639 89.7379 11.9301C89.5641 12.4063 89.4433 12.9001 89.3775 13.4027H96.738Z" fill="#78788B"/>
<path d="M105.508 2.01518L109.468 1.36072V6.53085H115.554V9.8356H109.468V16.8063C109.468 18.18 109.686 19.1617 110.122 19.7514C110.558 20.341 111.3 20.6353 112.347 20.6343C112.993 20.6442 113.636 20.5681 114.262 20.4081C114.711 20.2904 115.153 20.1481 115.587 19.9821L116.242 23.124C115.655 23.3629 115.054 23.5644 114.442 23.7272C113.7 23.9338 112.827 24.0373 111.824 24.0378C110.601 24.0378 109.582 23.8742 108.764 23.547C107.947 23.2197 107.298 22.7447 106.817 22.1219C106.337 21.5006 105.999 20.7481 105.803 19.8645C105.595 18.869 105.497 17.8539 105.508 16.8372V2.01518Z" fill="#78788B"/>
<path d="M125.895 6.10553C127.202 6.10553 128.303 6.26915 129.2 6.59638C130.096 6.92361 130.81 7.38179 131.343 7.97091C131.89 8.58364 132.283 9.31836 132.489 10.1138C132.726 11.0162 132.841 11.9463 132.832 12.8794V23.2528C132.221 23.384 131.299 23.5424 130.067 23.7279C128.685 23.9232 127.291 24.0162 125.895 24.0061C124.949 24.0143 124.004 23.9154 123.08 23.7113C122.23 23.5152 121.504 23.1988 120.904 22.762C120.3 22.3217 119.817 21.7368 119.497 21.061C119.159 20.3628 118.989 19.501 118.99 18.4755C118.99 17.4938 119.181 16.6644 119.563 15.9874C119.938 15.3177 120.472 14.7502 121.117 14.3346C121.813 13.8925 122.584 13.582 123.392 13.4185C124.279 13.2303 125.184 13.1371 126.091 13.1403C126.55 13.1416 127.009 13.1688 127.466 13.2217C127.983 13.2836 128.497 13.3765 129.004 13.4999V12.8477C129.005 12.4062 128.95 11.9663 128.84 11.5388C128.736 11.1342 128.54 10.7591 128.267 10.4425C127.973 10.1121 127.602 9.85939 127.187 9.7066C126.74 9.53218 126.179 9.44497 125.502 9.44497C124.658 9.43897 123.815 9.50455 122.982 9.641C122.348 9.73938 121.724 9.89277 121.117 10.0994L120.626 6.89119C121.129 6.71677 121.86 6.54235 122.819 6.36792C123.834 6.18856 124.864 6.10075 125.895 6.10553ZM126.222 20.8634C127.444 20.8634 128.371 20.7981 129.004 20.6674V16.2822C128.692 16.1971 128.375 16.1317 128.054 16.0861C127.599 16.0177 127.14 15.9849 126.68 15.9881C126.236 15.9885 125.794 16.0212 125.355 16.0861C124.935 16.1433 124.527 16.2646 124.144 16.4458C123.796 16.6112 123.497 16.8652 123.277 17.1824C123.058 17.4981 122.949 17.8962 122.95 18.3768C122.95 19.3147 123.244 19.9637 123.834 20.3236C124.423 20.6835 125.219 20.8634 126.222 20.8634Z" fill="#78788B"/>
<path d="M137.548 15.1045C137.539 13.8959 137.738 12.6948 138.137 11.5539C138.503 10.4966 139.076 9.52264 139.822 8.68875C140.566 7.87311 141.475 7.22602 142.49 6.79095C143.536 6.33353 144.714 6.10457 146.024 6.10407C147.594 6.09533 149.15 6.39559 150.605 6.98775L149.753 10.2299C149.251 10.0198 148.731 9.85556 148.2 9.73907C147.592 9.60539 146.972 9.53964 146.351 9.54303C144.801 9.54303 143.623 10.0283 142.817 10.999C142.011 11.9696 141.607 13.3386 141.606 15.106C141.606 16.8075 141.988 18.1546 142.751 19.1474C143.515 20.1401 144.802 20.6363 146.612 20.6358C147.282 20.6366 147.951 20.5709 148.608 20.4397C149.19 20.3298 149.759 20.1655 150.31 19.9489L150.866 23.2212C150.43 23.4399 149.77 23.6362 148.886 23.8101C147.986 23.986 147.071 24.0736 146.154 24.0717C144.693 24.0717 143.422 23.8483 142.342 23.4014C141.262 22.9545 140.367 22.3328 139.658 21.536C138.934 20.7104 138.394 19.7398 138.075 18.689C137.715 17.5285 137.538 16.3193 137.548 15.1045Z" fill="#78788B"/>
<path d="M169.875 15.0713C169.875 16.4245 169.678 17.6572 169.286 18.7696C168.893 19.882 168.337 20.8308 167.617 21.6159C166.891 22.406 166.004 23.031 165.015 23.4489C164.001 23.8847 162.883 24.1029 161.661 24.1034C160.439 24.1039 159.327 23.8857 158.323 23.4489C157.342 23.0279 156.46 22.4031 155.738 21.6159C154.993 20.7884 154.42 19.8208 154.053 18.7696C153.651 17.6567 153.45 16.4239 153.45 15.0713C153.45 13.7186 153.651 12.4916 154.053 11.3903C154.424 10.3419 155.003 9.37917 155.755 8.5598C156.483 7.77471 157.37 7.15438 158.358 6.74042C159.405 6.30654 160.53 6.08954 161.664 6.10254C162.802 6.09066 163.932 6.30758 164.985 6.74042C165.974 7.14842 166.862 7.76844 167.586 8.55679C168.329 9.37995 168.902 10.3419 169.271 11.3873C169.673 12.4911 169.874 13.7191 169.875 15.0713ZM165.817 15.0713C165.817 13.3703 165.452 12.0231 164.721 11.0299C163.99 10.0366 162.97 9.5405 161.661 9.5415C160.354 9.5415 159.335 10.0376 158.602 11.0299C157.869 12.0221 157.503 13.3693 157.505 15.0713C157.505 16.7949 157.871 18.1584 158.602 19.1617C159.332 20.165 160.352 20.6677 161.661 20.6697C162.968 20.6697 163.988 20.167 164.721 19.1617C165.454 18.1564 165.819 16.7929 165.817 15.0713Z" fill="#78788B"/>
<path d="M184.534 14.646C184.534 12.8575 184.311 11.565 183.863 10.7682C183.416 9.97152 182.582 9.57341 181.36 9.57391C180.879 9.57715 180.398 9.60989 179.921 9.67193C179.397 9.73753 179.005 9.79257 178.742 9.83555V23.6449H174.783V7.08724C175.546 6.86959 176.544 6.66224 177.777 6.4652C179.071 6.26447 180.378 6.16614 181.687 6.17114C182.866 6.17114 183.831 6.3237 184.583 6.62881C185.287 6.90186 185.928 7.31368 186.468 7.83973C186.761 7.63346 187.067 7.44754 187.384 7.28328C187.786 7.07404 188.201 6.89363 188.628 6.74342C189.104 6.57512 189.59 6.43859 190.084 6.33476C190.595 6.22576 191.116 6.17092 191.639 6.17114C192.969 6.17114 194.065 6.3619 194.927 6.74342C195.79 7.12494 196.466 7.65952 196.956 8.34716C197.447 9.0338 197.785 9.86319 197.971 10.8353C198.163 11.8879 198.256 12.9562 198.249 14.0262V23.6449H194.286V14.646C194.286 12.8575 194.068 11.565 193.631 10.7682C193.195 9.97152 192.355 9.57341 191.112 9.57391C190.499 9.57077 189.889 9.67593 189.312 9.88456C188.745 10.0927 188.319 10.2937 188.036 10.4877C188.214 11.0521 188.335 11.6332 188.396 12.2219C188.463 12.8732 188.496 13.5276 188.494 14.1823V23.6449H184.534V14.646Z" fill="#78788B"/>
<path d="M208.197 20.7978C209.245 20.7978 210.008 20.6722 210.488 20.4208C210.967 20.1695 211.207 19.7387 211.208 19.1285C211.208 18.5615 210.951 18.0925 210.439 17.7216C209.926 17.3506 209.078 16.9472 207.895 16.5114C207.221 16.269 206.56 15.9903 205.916 15.6767C205.353 15.4069 204.829 15.06 204.361 14.646C203.923 14.2495 203.573 13.7653 203.334 13.2247C203.082 12.6688 202.957 11.9872 202.957 11.1799C202.957 9.6096 203.535 8.37154 204.691 7.46574C205.847 6.55995 207.418 6.10755 209.403 6.10856C210.37 6.105 211.335 6.19821 212.283 6.38678C213.199 6.57226 213.886 6.75222 214.344 6.92664L213.626 10.1334C213.087 9.90367 212.528 9.72299 211.957 9.59351C211.184 9.41933 210.393 9.33682 209.601 9.34771C208.793 9.34771 208.14 9.48418 207.641 9.75713C207.141 10.0301 206.89 10.45 206.887 11.0171C206.881 11.276 206.931 11.5331 207.034 11.771C207.15 12.0108 207.325 12.2181 207.541 12.3742C207.837 12.5929 208.155 12.7794 208.49 12.9307C208.96 13.1469 209.44 13.338 209.93 13.503C210.745 13.7992 211.543 14.1433 212.318 14.5337C212.914 14.8301 213.46 15.2163 213.939 15.679C214.354 16.0892 214.673 16.5869 214.871 17.1357C215.067 17.6811 215.165 18.3346 215.165 19.0961C215.165 20.7322 214.56 21.9703 213.35 22.8103C212.139 23.6502 210.41 24.0699 208.163 24.0694C206.655 24.0694 205.444 23.9438 204.53 23.6924C203.616 23.4411 202.973 23.24 202.6 23.0892L203.287 19.7845C203.976 20.0578 204.681 20.2872 205.398 20.4714C206.214 20.6895 207.147 20.7983 208.197 20.7978Z" fill="#78788B"/>
<path d="M39.3464 23.8145C37.3681 23.8111 35.4253 23.2889 33.7119 22.2999C31.9986 21.3109 30.5746 19.8898 29.5822 18.1785H29.5739C29.4238 17.918 29.3265 17.6306 29.2875 17.3326C29.2485 17.0346 29.2686 16.7318 29.3467 16.4416C29.5043 15.8554 29.8883 15.3558 30.4142 15.0528C30.9401 14.7497 31.5649 14.668 32.1511 14.8256C32.4413 14.9036 32.7133 15.0381 32.9516 15.2212C33.1899 15.4044 33.3898 15.6327 33.5399 15.8931C34.2265 17.0828 35.2622 18.0328 36.5066 18.6144C37.751 19.196 39.1441 19.3811 40.4973 19.1447C41.8504 18.9083 43.0982 18.2618 44.0718 17.2928C45.0453 16.3237 45.6975 15.0789 45.9402 13.7268C46.1828 12.3748 46.004 10.9809 45.4282 9.73376C44.8523 8.48666 43.9071 7.44665 42.7206 6.75454C41.5341 6.06243 40.1635 5.75166 38.7945 5.8643C37.4255 5.97694 36.1242 6.50755 35.0667 7.38429L18.4736 21.2087C16.4495 22.8895 13.9016 23.8096 11.2707 23.81C5.05628 23.81 0 18.7583 0 12.5408C0 6.32342 5.05628 1.27016 11.2707 1.27016C12.6803 1.26699 14.0777 1.52996 15.3898 2.04527C15.9442 2.27422 16.3865 2.71171 16.6216 3.26357C16.8567 3.81542 16.8657 4.43752 16.6467 4.99594C16.4276 5.55436 15.9981 6.00446 15.4505 6.24935C14.903 6.49424 14.2811 6.51434 13.7189 6.30533L13.7151 6.29703C12.6146 5.86846 11.4204 5.73846 10.2534 5.92021C9.0865 6.10197 7.98835 6.58902 7.07032 7.33199C6.15229 8.07496 5.44701 9.04744 5.02598 10.1508C4.60494 11.2543 4.48312 12.4494 4.67286 13.615C4.8626 14.7807 5.35715 15.8755 6.10639 16.7884C6.85563 17.7013 7.83291 18.3999 8.93918 18.8134C10.0454 19.2269 11.2414 19.3405 12.4057 19.1428C13.5701 18.9451 14.6614 18.4431 15.5692 17.6876L32.1397 3.87521C34.1648 2.19271 36.7143 1.27095 39.3471 1.26941C45.5608 1.27318 50.6171 6.32945 50.6171 12.5461C50.6171 18.7628 45.5608 23.8145 39.3464 23.8145Z" fill="#78788B"/>
<path d="M20.0389 11.0065C19.4792 11.0071 18.932 10.8418 18.4663 10.5313C18.0007 10.2209 17.6375 9.77943 17.4227 9.26263C17.208 8.74584 17.1513 8.17697 17.2598 7.62796C17.3684 7.07895 17.6373 6.57445 18.0325 6.17826C18.4278 5.78206 18.9316 5.51196 19.4804 5.4021C20.0291 5.29225 20.5981 5.34757 21.1154 5.56108C21.6327 5.77459 22.0751 6.13669 22.3866 6.60161C22.6982 7.06653 22.8648 7.61337 22.8656 8.17301C22.8658 8.92339 22.5683 9.64319 22.0383 10.1744C21.5083 10.7057 20.7892 11.0049 20.0389 11.0065Z" fill="#78788B"/>
</svg>

<svg width="216" height="25" fill="none" xmlns="http://www.w3.org/2000/svg"><path d="M61.61.968c.48.83 1.014 1.844 1.604 3.043.59 1.2 1.19 2.46 1.8 3.78.61 1.32 1.215 2.661 1.815 4.024a683.699 683.699 0 011.653 3.78c.503-1.156 1.048-2.416 1.636-3.78a163.641 163.641 0 011.8-4.024c.61-1.32 1.21-2.58 1.8-3.78A50.285 50.285 0 0175.322.968h3.716c.201 1.659.39 3.42.566 5.285.177 1.864.338 3.773.483 5.726.145 1.953.278 3.916.4 5.89.122 1.974.228 3.9.317 5.776h-4.057a800.253 800.253 0 00-.318-8.148 166.273 166.273 0 00-.55-8.116c-.24.503-.523 1.103-.85 1.8a233.625 233.625 0 00-2.178 4.81l-1.114 2.537c-.36.818-.691 1.582-.993 2.29-.302.71-.563 1.315-.786 1.816H66.88c-.219-.502-.48-1.113-.785-1.832a195.71 195.71 0 00-.999-2.307c-.36-.818-.73-1.663-1.112-2.536-.381-.873-.758-1.712-1.131-2.52-.37-.804-.72-1.562-1.046-2.274a58.155 58.155 0 00-.85-1.784 164.401 164.401 0 00-.55 8.116 814.497 814.497 0 00-.317 8.148h-4.06c.089-1.876.194-3.817.316-5.825.122-2.007.256-3.997.4-5.971.145-1.975.306-3.89.483-5.743.178-1.855.367-3.567.567-5.138h3.813zM85.252 15.17c0-1.508.224-2.828.672-3.96.447-1.132 1.042-2.075 1.785-2.83a7.39 7.39 0 012.552-1.702 7.908 7.908 0 012.945-.572c2.357 0 4.195.73 5.514 2.192 1.32 1.462 1.98 3.643 1.98 6.545 0 .218-.006.463-.016.736-.011.272-.028.518-.049.736H89.343c.108 1.374.594 2.438 1.456 3.19.862.754 2.111 1.13 3.747 1.132a12.29 12.29 0 002.634-.262c.796-.174 1.424-.36 1.885-.557l.523 3.243c-.29.137-.591.252-.9.343-.43.133-.867.242-1.308.328a19.69 19.69 0 01-1.584.245c-.575.066-1.155.098-1.734.098-1.508 0-2.817-.224-3.927-.67-1.11-.448-2.026-1.07-2.749-1.866a7.642 7.642 0 01-1.603-2.814 11.463 11.463 0 01-.53-3.555zm11.486-1.767a5.214 5.214 0 00-.226-1.554 3.75 3.75 0 00-.671-1.277 3.171 3.171 0 00-1.08-.85c-.426-.207-.933-.311-1.521-.312a3.544 3.544 0 00-1.604.344 3.66 3.66 0 00-1.162.9c-.32.378-.57.81-.736 1.276-.174.476-.295.97-.36 1.473h7.36zm8.77-11.388l3.96-.654v5.17h6.086v3.305h-6.086v6.97c0 1.374.218 2.356.654 2.945.436.59 1.178.884 2.225.883a7.277 7.277 0 001.915-.226c.449-.118.891-.26 1.325-.426l.655 3.142a15.03 15.03 0 01-1.8.603c-.742.207-1.615.31-2.618.31-1.223 0-2.242-.163-3.06-.49-.817-.327-1.466-.802-1.947-1.425-.48-.621-.818-1.374-1.014-2.258a14.057 14.057 0 01-.295-3.027V2.015zm20.387 4.091c1.307 0 2.408.163 3.305.49.896.328 1.61.786 2.143 1.375a5.16 5.16 0 011.146 2.143c.237.902.352 1.832.343 2.765v10.374c-.611.131-1.533.29-2.765.475a28.345 28.345 0 01-4.172.278c-.946.008-1.891-.09-2.815-.295-.85-.196-1.576-.512-2.176-.949a4.472 4.472 0 01-1.407-1.701c-.338-.698-.508-1.56-.507-2.585 0-.982.191-1.812.573-2.489a4.697 4.697 0 011.554-1.652 6.733 6.733 0 012.275-.917 12.788 12.788 0 014.074-.196c.517.062 1.031.155 1.538.278v-.652a5.205 5.205 0 00-.164-1.31 2.708 2.708 0 00-.573-1.095 2.69 2.69 0 00-1.08-.736c-.447-.175-1.008-.262-1.685-.262a14.98 14.98 0 00-2.52.196 11.04 11.04 0 00-1.865.458l-.491-3.208c.503-.174 1.234-.349 2.193-.523a17.222 17.222 0 013.076-.262zm.327 14.757c1.222 0 2.149-.065 2.782-.196v-4.385a8.826 8.826 0 00-2.324-.294c-.444 0-.886.033-1.325.098-.42.057-.828.179-1.211.36a2.21 2.21 0 00-.867.736c-.219.316-.328.714-.327 1.195 0 .938.294 1.587.884 1.947.589.36 1.385.54 2.388.54zm11.326-5.759c-.009-1.208.19-2.41.589-3.55a8.437 8.437 0 011.685-2.865 7.736 7.736 0 012.668-1.898c1.046-.457 2.224-.686 3.534-.687 1.57-.009 3.126.292 4.581.884l-.852 3.242a9.041 9.041 0 00-1.553-.49 8.396 8.396 0 00-1.849-.197c-1.55 0-2.728.485-3.534 1.456-.806.97-1.21 2.34-1.211 4.107 0 1.702.382 3.049 1.145 4.041.764.993 2.051 1.49 3.861 1.489.67 0 1.339-.065 1.996-.196a9.434 9.434 0 001.702-.491l.556 3.272c-.436.219-1.096.415-1.98.59-.9.175-1.815.263-2.732.26-1.461 0-2.732-.223-3.812-.67-1.08-.447-1.975-1.068-2.684-1.865a7.72 7.72 0 01-1.583-2.847 11.77 11.77 0 01-.527-3.585zm32.327-.033c0 1.353-.197 2.586-.589 3.699-.393 1.112-.949 2.06-1.669 2.846a7.495 7.495 0 01-2.602 1.833c-1.014.436-2.132.654-3.354.654s-2.334-.217-3.338-.654a7.547 7.547 0 01-2.585-1.833 8.385 8.385 0 01-1.685-2.846c-.402-1.113-.603-2.346-.603-3.699 0-1.352.201-2.58.603-3.68a8.263 8.263 0 011.702-2.831 7.504 7.504 0 012.603-1.82 8.386 8.386 0 013.306-.637 8.504 8.504 0 013.321.637 7.324 7.324 0 012.601 1.817 8.396 8.396 0 011.685 2.83c.402 1.104.603 2.332.604 3.684zm-4.058 0c0-1.7-.365-3.048-1.096-4.041-.731-.993-1.751-1.49-3.06-1.489-1.307 0-2.326.497-3.059 1.489-.733.992-1.099 2.34-1.097 4.041 0 1.724.366 3.087 1.097 4.09.73 1.004 1.75 1.507 3.059 1.509 1.307 0 2.327-.503 3.06-1.508.733-1.006 1.098-2.37 1.096-4.09zm18.717-.425c0-1.789-.223-3.081-.671-3.878-.447-.796-1.281-1.195-2.503-1.194-.481.003-.962.036-1.439.098-.524.066-.916.12-1.179.164v13.809h-3.959V7.087c.763-.217 1.761-.425 2.994-.622 1.294-.2 2.601-.299 3.91-.294 1.179 0 2.144.153 2.896.458a5.606 5.606 0 011.885 1.21c.293-.206.599-.391.916-.556a9.58 9.58 0 011.244-.54c.476-.168.962-.304 1.456-.408a7.437 7.437 0 011.555-.164c1.33 0 2.426.19 3.288.572.863.382 1.539.917 2.029 1.604.491.687.829 1.516 1.015 2.488a17.16 17.16 0 01.278 3.191v9.619h-3.963v-8.999c0-1.789-.218-3.081-.655-3.878-.436-.796-1.276-1.195-2.519-1.194a5.218 5.218 0 00-1.8.31c-.567.209-.993.41-1.276.604a8.76 8.76 0 01.36 1.734c.067.651.1 1.306.098 1.96v9.463h-3.96v-8.999zm23.663 6.152c1.048 0 1.811-.126 2.291-.377.479-.252.719-.682.72-1.293 0-.567-.257-1.035-.769-1.406-.513-.371-1.361-.775-2.544-1.21a19.917 19.917 0 01-1.979-.835 6.75 6.75 0 01-1.555-1.031 4.218 4.218 0 01-1.027-1.421c-.252-.556-.377-1.238-.377-2.045 0-1.57.578-2.808 1.734-3.714 1.156-.906 2.727-1.358 4.712-1.357a14.49 14.49 0 012.88.278c.916.185 1.603.365 2.061.54l-.718 3.206a9.767 9.767 0 00-1.669-.54 10.088 10.088 0 00-2.356-.245c-.808 0-1.461.136-1.96.41-.5.272-.751.692-.754 1.26-.006.258.044.515.147.753.116.24.291.447.507.603.296.219.614.405.949.557.47.216.95.407 1.44.572.815.296 1.613.64 2.388 1.03a6.496 6.496 0 011.621 1.146c.415.41.734.908.932 1.457.196.545.294 1.199.294 1.96 0 1.636-.605 2.874-1.815 3.714-1.211.84-2.94 1.26-5.187 1.26-1.508 0-2.719-.126-3.633-.378-.914-.25-1.557-.452-1.93-.603l.687-3.304a17.62 17.62 0 002.111.686c.816.218 1.749.327 2.799.327zM39.346 23.814a11.31 11.31 0 01-9.764-5.636h-.008a2.29 2.29 0 113.966-2.285 6.701 6.701 0 101.527-8.509L18.474 21.21a11.277 11.277 0 01-7.203 2.601C5.056 23.81 0 18.758 0 12.54 0 6.324 5.056 1.27 11.27 1.27c1.41-.003 2.808.26 4.12.775a2.288 2.288 0 01-1.671 4.26l-.004-.008a6.699 6.699 0 101.854 11.39L32.14 3.876a11.289 11.289 0 017.208-2.606c6.214.004 11.27 5.06 11.27 11.277s-5.056 11.268-11.27 11.268z" fill="#78788B"/><path d="M20.039 11.007a2.83 2.83 0 11-.007-5.659 2.83 2.83 0 01.007 5.659z" fill="#78788B"/></svg>
